X: 42911
T: Will You Come Home With Me?
R: jig
M: 6/8
K: Gmajor
|:d2g fdc|~B3 cAF|GFG ABA|GFG ABc|
d2g fdc|~B3 cAF|GFG ABA|~G3 GBc:|
|:d2B c2A|~B3 cAF|GFG ABA|GFG ABc|
d2B c2A|~B3 cAF|GFG ABA|~G3 GBc:|

